X:1
T:C Major Isaac Lane, 1793
T:Joseph Addison, 1712 86. 86. (C . M.)
T:Leverett Street No copyright. Transcribed from The Union Harmony, 1793.
%%score [ 1 2 3 4 ]
L:1/8
M:4/4
K:C
V:1 treble nm="Treble" snm="Tr."
V:2 treble nm="Counter" snm="C."
V:3 treble-8 nm="Tenor" snm="T."
V:4 bass nm="Bass" snm="B."
V:1
 c4 | (e3 d c2) B2 | c2 d2 c4 | B4 c4- | c4 B4 | (A3 B c2) BA | G4 ^F4 | G8 | z4 G4 | %9
 (c3 B c2) B2 | (c3 d e2) dc | d4 c4 | B6 B2 | (c3 d c3 d | e6) d2 | c4 B4 | c8 |] %17
V:2
 E4 | G6 G2 | G2 F2 G4 | G4 E4- | E4 G4 | E6 E2 | D4 D4 | D8 | z4 E4 | G6 G2 | G6 E2 | A4 G4 | %12
w: 1.~When|all Thy|mer- cies, O|my God,|* My|ri- sing|soul sur-|veys,|Trans-|por- ted|with the|view, I'm|
 G6 G2 | G8- | G6 A2 | G4 G4 | E8 |] %17
w: lost In|won-|* der,|love, and|praise.|
V:3
 G4 | (c3 d e2) d2 | e2 f2 e4 | d4 c4- | c4 G4 | (c3 B A2) c2 | B4 A4 | G8 | z4 c4 | (e3 d c2) d2 | %10
 (e3 f g2) fe | f4 e4 | d6 d2 | (e3 f e3 f | g6) f2 | e4 d4 | c8 |] %17
V:4
 C,4 | C,6 G,2 | E,2 D,2 E,4 | G,4 C,4- | C,4 G,4 | (A,3 G, F,2) C,2 | D,4 D,4 | G,,8 | z4 C,4 | %9
 (C,3 D,) E,2 G,2 | (E,3 D, C,2) C,2 | F,4 C,4 | G,6 G,2 | C8- | C6 F,2 | G,4 G,4 | C,8 |] %17

